X:1
T:Going Home
L:1/8
M:4/4
K:Dmaj
V:1
 z4 A,2 G,2 || F F2 F G G3- | G4 F2 G2 || A>c AG | F8- | F3 F/D/ F2 G2 | 
 D>D- DD/C/ D4- | D4 G,>C- CD | (3F2 C2 G,2 | A,3 A,/G,/ A,4- | A,3 C C2 D2 | 
 F F2 F G G3- | G3 C/D/ FGcc | A>c AG | F8- | F3 D F2 G2 | D D2 D/C/ D4- | 
 D4 G,>C- CD | (3F2 C2 G,2 | (3A,2 C2 F2 D3 C | C4- CC/D/ FG | 
 (3c2 c2 c2 c>c- cG/F/ | A3 G/F/ G3 F/F/ | F>G- GF (3F2 C2 G,2 | A,>C- CF D4 | 
 f>d- dc (3c2 G2 F2 | A3 G/F/ G3 F/F/ | (3F2 G2 F2 F>C- CC | A,2 D2 | G8| 

